images/cleint-logo-4.svg

<svg width="80" height="43" viewBox="0 0 80 43" fill="none" xmlns="http://www.w3.org/2000/svg">
<path d="M12.402 12.8306H12.3992C10.1369 12.8306 8.30298 14.6177 8.30298 16.8223V16.8249C8.30298 19.0295 10.1369 20.8167 12.3992 20.8167H12.402C14.6643 20.8167 16.4982 19.0295 16.4982 16.8249V16.8223C16.4982 14.6177 14.6643 12.8306 12.402 12.8306Z" fill="#2196F3"/>
<path d="M42.6368 11.5545C42.6304 8.49242 41.3795 5.55752 39.1579 3.39207C36.9363 1.22661 33.925 0.00695286 30.7828 0V0C27.6397 0.00556265 24.6269 1.22461 22.4041 3.39022C20.1814 5.55582 18.9298 8.49151 18.9233 11.5545V28.4402C18.9233 28.4402 42.6341 25.8667 42.6368 11.5571V11.5545Z" fill="#2196F3"/>
<path d="M0 33.9823C0.00569904 36.1129 0.876556 38.1547 2.42228 39.6615C3.96799 41.1683 6.0629 42.0177 8.24923 42.0239C10.4351 42.0177 12.5296 41.1687 14.0752 39.6625C15.6209 38.1562 16.492 36.1151 16.4985 33.9849V22.2356C16.4985 22.2356 0 24.0276 0 33.9823ZM8.24923 36.0874C7.82198 36.0874 7.40433 35.964 7.04909 35.7326C6.69385 35.5013 6.41697 35.1726 6.25347 34.7879C6.08997 34.4032 6.04719 33.98 6.13054 33.5716C6.2139 33.1632 6.41963 32.7881 6.72174 32.4937C7.02385 32.1993 7.40876 31.9988 7.8278 31.9176C8.24683 31.8364 8.68117 31.8781 9.0759 32.0374C9.47062 32.1967 9.808 32.4665 10.0454 32.8127C10.2827 33.1589 10.4094 33.5659 10.4094 33.9823C10.4105 34.2594 10.3554 34.534 10.2473 34.7903C10.1392 35.0466 9.98028 35.2796 9.77958 35.476C9.57889 35.6723 9.34039 35.828 9.07777 35.9343C8.81516 36.0406 8.53359 36.0953 8.24923 36.0953V36.0874Z" fill="#2196F3"/>
<path d="M25.0891 34.7812H23.4016V36.5244H22.5227V32.2588H25.3V32.9707H23.4016V34.0723H25.0891V34.7812ZM29.3137 34.4883C29.3137 34.9082 29.2395 35.2764 29.0911 35.5928C28.9426 35.9092 28.7297 36.1533 28.4524 36.3252C28.177 36.4971 27.8606 36.583 27.5032 36.583C27.1497 36.583 26.8342 36.498 26.5569 36.3281C26.2795 36.1582 26.0647 35.916 25.9124 35.6016C25.76 35.2852 25.6829 34.9219 25.6809 34.5117V34.3008C25.6809 33.8809 25.7561 33.5117 25.9065 33.1934C26.0588 32.873 26.2727 32.6279 26.5481 32.458C26.8254 32.2861 27.1418 32.2002 27.4973 32.2002C27.8528 32.2002 28.1682 32.2861 28.4436 32.458C28.7209 32.6279 28.9348 32.873 29.0852 33.1934C29.2375 33.5117 29.3137 33.8799 29.3137 34.2979V34.4883ZM28.4231 34.2949C28.4231 33.8477 28.343 33.5078 28.1829 33.2754C28.0227 33.043 27.7942 32.9268 27.4973 32.9268C27.2024 32.9268 26.9749 33.042 26.8147 33.2725C26.6545 33.501 26.5735 33.8369 26.5715 34.2803V34.4883C26.5715 34.9238 26.6516 35.2617 26.8118 35.502C26.9719 35.7422 27.2024 35.8623 27.5032 35.8623C27.7981 35.8623 28.0247 35.7471 28.1829 35.5166C28.3411 35.2842 28.4211 34.9463 28.4231 34.5029V34.2949ZM32.1643 35.4053C32.1643 35.2393 32.1057 35.1123 31.9885 35.0244C31.8713 34.9346 31.6604 34.8408 31.3557 34.7432C31.051 34.6436 30.8098 34.5459 30.6321 34.4502C30.1477 34.1885 29.9055 33.8359 29.9055 33.3926C29.9055 33.1621 29.97 32.957 30.0989 32.7773C30.2297 32.5957 30.4163 32.4541 30.6584 32.3525C30.9026 32.251 31.176 32.2002 31.4788 32.2002C31.7834 32.2002 32.0549 32.2559 32.2932 32.3672C32.5315 32.4766 32.7161 32.6318 32.8469 32.833C32.9797 33.0342 33.0461 33.2627 33.0461 33.5186H32.1672C32.1672 33.3232 32.1057 33.1719 31.9827 33.0645C31.8596 32.9551 31.6868 32.9004 31.4641 32.9004C31.2493 32.9004 31.0823 32.9463 30.9631 33.0381C30.844 33.1279 30.7844 33.2471 30.7844 33.3955C30.7844 33.5342 30.8538 33.6504 30.9924 33.7441C31.1331 33.8379 31.3391 33.9258 31.6106 34.0078C32.1106 34.1582 32.4749 34.3447 32.7034 34.5674C32.9319 34.79 33.0461 35.0674 33.0461 35.3994C33.0461 35.7686 32.9065 36.0586 32.6272 36.2695C32.3479 36.4785 31.9719 36.583 31.4993 36.583C31.1711 36.583 30.8723 36.5234 30.6028 36.4043C30.3333 36.2832 30.1272 36.1182 29.9846 35.9092C29.844 35.7002 29.7737 35.458 29.7737 35.1826H30.6555C30.6555 35.6533 30.9368 35.8887 31.4993 35.8887C31.7083 35.8887 31.8713 35.8467 31.9885 35.7627C32.1057 35.6768 32.1643 35.5576 32.1643 35.4053ZM36.8547 32.9707H35.5481V36.5244H34.6692V32.9707H33.3801V32.2588H36.8547V32.9707ZM39.925 34.6758H38.2375V35.8184H40.218V36.5244H37.3586V32.2588H40.2122V32.9707H38.2375V33.9873H39.925V34.6758ZM42.3127 34.9629H41.6125V36.5244H40.7336V32.2588H42.3186C42.8225 32.2588 43.2112 32.3711 43.4846 32.5957C43.7581 32.8203 43.8948 33.1377 43.8948 33.5479C43.8948 33.8389 43.8313 34.082 43.7043 34.2773C43.5793 34.4707 43.3889 34.625 43.1331 34.7402L44.0559 36.4834V36.5244H43.1125L42.3127 34.9629ZM41.6125 34.251H42.3215C42.5422 34.251 42.7131 34.1953 42.8342 34.084C42.9553 33.9707 43.0159 33.8154 43.0159 33.6182C43.0159 33.417 42.9583 33.2588 42.843 33.1436C42.7297 33.0283 42.5549 32.9707 42.3186 32.9707H41.6125V34.251ZM46.9387 35.0215V36.5244H46.0598V32.2588H47.7239C48.0442 32.2588 48.3254 32.3174 48.5676 32.4346C48.8118 32.5518 48.9993 32.7188 49.1301 32.9355C49.261 33.1504 49.3264 33.3955 49.3264 33.6709C49.3264 34.0889 49.1829 34.4189 48.8958 34.6611C48.6106 34.9014 48.2151 35.0215 47.7092 35.0215H46.9387ZM46.9387 34.3096H47.7239C47.9563 34.3096 48.1331 34.2549 48.2542 34.1455C48.3772 34.0361 48.4387 33.8799 48.4387 33.6768C48.4387 33.4678 48.3772 33.2988 48.2542 33.1699C48.1311 33.041 47.9612 32.9746 47.7444 32.9707H46.9387V34.3096ZM52.4993 34.6758H50.8118V35.8184H52.7922V36.5244H49.9329V32.2588H52.7864V32.9707H50.8118V33.9873H52.4993V34.6758ZM56.5774 32.9707H55.2708V36.5244H54.3918V32.9707H53.1028V32.2588H56.5774V32.9707ZM59.6477 34.6758H57.9602V35.8184H59.9407V36.5244H57.0813V32.2588H59.9348V32.9707H57.9602V33.9873H59.6477V34.6758ZM62.0354 34.9629H61.3352V36.5244H60.4563V32.2588H62.0413C62.5452 32.2588 62.9338 32.3711 63.2073 32.5957C63.4807 32.8203 63.6174 33.1377 63.6174 33.5479C63.6174 33.8389 63.554 34.082 63.427 34.2773C63.302 34.4707 63.1116 34.625 62.8557 34.7402L63.7786 36.4834V36.5244H62.8352L62.0354 34.9629ZM61.3352 34.251H62.0442C62.2649 34.251 62.4358 34.1953 62.5569 34.084C62.678 33.9707 62.7385 33.8154 62.7385 33.6182C62.7385 33.417 62.6809 33.2588 62.5657 33.1436C62.4524 33.0283 62.2776 32.9707 62.0413 32.9707H61.3352V34.251ZM66.5002 35.4053C66.5002 35.2393 66.4417 35.1123 66.3245 35.0244C66.2073 34.9346 65.9963 34.8408 65.6917 34.7432C65.387 34.6436 65.1458 34.5459 64.968 34.4502C64.4836 34.1885 64.2415 33.8359 64.2415 33.3926C64.2415 33.1621 64.3059 32.957 64.4348 32.7773C64.5657 32.5957 64.7522 32.4541 64.9944 32.3525C65.2385 32.251 65.512 32.2002 65.8147 32.2002C66.1194 32.2002 66.3909 32.2559 66.6292 32.3672C66.8674 32.4766 67.052 32.6318 67.1829 32.833C67.3157 33.0342 67.3821 33.2627 67.3821 33.5186H66.5032C66.5032 33.3232 66.4417 33.1719 66.3186 33.0645C66.1956 32.9551 66.0227 32.9004 65.8 32.9004C65.5852 32.9004 65.4182 32.9463 65.2991 33.0381C65.1799 33.1279 65.1204 33.2471 65.1204 33.3955C65.1204 33.5342 65.1897 33.6504 65.3284 33.7441C65.469 33.8379 65.675 33.9258 65.9465 34.0078C66.4465 34.1582 66.8108 34.3447 67.0393 34.5674C67.2678 34.79 67.3821 35.0674 67.3821 35.3994C67.3821 35.7686 67.2424 36.0586 66.9631 36.2695C66.6838 36.4785 66.3079 36.583 65.8352 36.583C65.5071 36.583 65.2083 36.5234 64.9387 36.4043C64.6692 36.2832 64.4631 36.1182 64.3206 35.9092C64.1799 35.7002 64.1096 35.458 64.1096 35.1826H64.9915C64.9915 35.6533 65.2727 35.8887 65.8352 35.8887C66.0442 35.8887 66.2073 35.8467 66.3245 35.7627C66.4417 35.6768 66.5002 35.5576 66.5002 35.4053Z" fill="#2196F3"/>
</svg>

<svg width="80" height="43" fill="none" xmlns="http://www.w3.org/2000/svg"><path d="M12.402 12.83h-.003c-2.262 0-4.096 1.788-4.096 3.992v.003c0 2.204 1.834 3.992 4.096 3.992h.003c2.262 0 4.096-1.788 4.096-3.992v-.003c0-2.204-1.834-3.991-4.096-3.991zM42.637 11.555c-.007-3.063-1.258-5.997-3.48-8.163C36.938 1.227 33.926.007 30.784 0c-3.143.006-6.156 1.225-8.379 3.39-2.223 2.166-3.474 5.102-3.48 8.165V28.44s23.71-2.573 23.713-16.883v-.002zM0 33.982a7.96 7.96 0 002.422 5.68 8.384 8.384 0 005.827 2.362 8.384 8.384 0 005.826-2.361 7.96 7.96 0 002.424-5.678v-11.75S0 24.029 0 33.983zm8.25 2.105a2.2 2.2 0 01-1.2-.354 2.117 2.117 0 01-.797-.945 2.055 2.055 0 01-.122-1.216c.083-.409.289-.784.59-1.078a2.178 2.178 0 011.107-.576c.419-.082.853-.04 1.248.12.395.159.732.429.97.775a2.068 2.068 0 01.201 1.977c-.108.257-.267.49-.467.686-.201.196-.44.352-.702.458a2.209 2.209 0 01-.829.161v-.008zM25.09 34.781h-1.688v1.743h-.88V32.26H25.3v.712h-1.898v1.101h1.687v.71zm4.224-.293c0 .42-.075.788-.223 1.105-.148.316-.361.56-.639.732a1.755 1.755 0 01-.949.258 1.694 1.694 0 01-1.59-.981 2.511 2.511 0 01-.232-1.09V34.3c0-.42.075-.79.226-1.108.152-.32.366-.565.641-.735.277-.172.594-.258.95-.258.355 0 .67.086.946.258.277.17.49.415.641.735.152.319.229.687.229 1.105v.19zm-.89-.193c0-.447-.081-.787-.241-1.02a.783.783 0 00-.686-.348.782.782 0 00-.682.346c-.16.228-.242.564-.244 1.007v.208c0 .436.08.774.24 1.014.16.24.391.36.692.36a.775.775 0 00.68-.345c.158-.233.238-.57.24-1.014v-.208zm3.74 1.11a.447.447 0 00-.176-.38c-.117-.09-.328-.184-.632-.282a4.56 4.56 0 01-.724-.293c-.484-.262-.727-.614-.727-1.057 0-.23.065-.436.194-.616.13-.181.317-.323.56-.425.244-.101.517-.152.82-.152.304 0 .576.056.814.167.239.11.423.265.554.466.133.201.2.43.2.686h-.88c0-.196-.061-.347-.184-.454-.123-.11-.296-.165-.519-.165-.215 0-.382.046-.5.138a.426.426 0 00-.18.358c0 .138.07.254.208.348.141.094.347.182.619.264.5.15.864.337 1.092.56.229.222.343.5.343.831 0 .37-.14.66-.419.87-.28.21-.655.314-1.128.314-.328 0-.627-.06-.896-.179a1.439 1.439 0 01-.618-.495 1.27 1.27 0 01-.211-.726h.881c0 .47.282.706.844.706.21 0 .372-.042.49-.126a.418.418 0 00.175-.358zm4.69-2.434h-1.306v3.553h-.879v-3.553H33.38v-.712h3.475v.712zm3.071 1.705h-1.688v1.142h1.981v.706h-2.86V32.26h2.854v.712h-1.975v1.016h1.688v.689zm2.388.287h-.7v1.561h-.88V32.26h1.586c.503 0 .892.112 1.166.337.273.224.41.542.41.952 0 .29-.064.534-.19.73a1.282 1.282 0 01-.572.462l.923 1.743v.041h-.944l-.8-1.561zm-.7-.712h.709c.22 0 .391-.056.512-.167a.607.607 0 00.182-.466c0-.201-.058-.36-.173-.474-.113-.116-.288-.173-.524-.173h-.707v1.28zm5.326.77v1.503h-.88V32.26h1.665c.32 0 .601.058.844.176.244.117.431.284.562.5.131.215.196.46.196.736 0 .418-.143.748-.43.99-.285.24-.68.36-1.187.36h-.77zm0-.711h.785c.232 0 .41-.055.53-.165.123-.109.185-.265.185-.468a.704.704 0 00-.185-.507c-.123-.129-.293-.195-.51-.2h-.805v1.34zm5.56.366h-1.687v1.142h1.98v.706h-2.86V32.26h2.854v.712h-1.974v1.016h1.687v.689zm4.078-1.705h-1.306v3.553h-.88v-3.553h-1.288v-.712h3.474v.712zm3.07 1.705H57.96v1.142h1.98v.706h-2.859V32.26h2.854v.712H57.96v1.016h1.688v.689zm2.388.287h-.7v1.561h-.879V32.26h1.585c.504 0 .893.112 1.166.337.274.224.41.542.41.952 0 .29-.063.534-.19.73a1.282 1.282 0 01-.571.462l.923 1.743v.041h-.944l-.8-1.561zm-.7-.712h.71c.22 0 .39-.056.512-.167a.607.607 0 00.181-.466c0-.201-.057-.36-.172-.474-.114-.116-.288-.173-.525-.173h-.706v1.28zm5.165 1.154a.447.447 0 00-.175-.38c-.118-.09-.329-.184-.633-.282a4.565 4.565 0 01-.724-.293c-.484-.262-.727-.614-.727-1.057 0-.23.065-.436.194-.616.13-.181.317-.323.56-.425.243-.101.517-.152.82-.152.304 0 .576.056.814.167.238.11.423.265.554.466.133.201.2.43.2.686h-.88c0-.196-.061-.347-.184-.454-.123-.11-.296-.165-.519-.165-.215 0-.382.046-.5.138a.426.426 0 00-.18.358c0 .138.07.254.208.348.141.094.347.182.618.264.5.15.865.337 1.093.56.229.222.343.5.343.831 0 .37-.14.66-.419.87-.28.21-.655.314-1.128.314-.328 0-.627-.06-.896-.179a1.438 1.438 0 01-.618-.495 1.27 1.27 0 01-.211-.726h.882c0 .47.28.706.843.706.21 0 .372-.042.49-.126a.418.418 0 00.175-.358z" fill="#AFB1B8"/></svg>
